X: 15573
T: Glory
R: reel
M: 4/4
K: Gmajor
|:G2BG dGBG|G2 BG AFDF|G2BG dGBd|c2 Bc AFDF:|
|:~E6 cA|BGEB AFDF|~E6 cA|1 BdcB AFDF:|2 BdcB AFDf||
|:gagf edef|g2fg e^cAf|gagf eaaf|1 g2fg e^cAf:|2 g2 fg e^cAF||

